symbols/web/doorbell/materialsymbolsrounded/doorbell_wght300grad200fill1_48px.svg

<svg xmlns="http://www.w3.org/2000/svg" height="48" width="48"><path d="M24 34.65q.65 0 1.175-.45t.625-1.1h-3.6q.1.65.625 1.1.525.45 1.175.45Zm-6.95-2.55H31q.3 0 .525-.25.225-.25.225-.55 0-.3-.225-.525-.225-.225-.525-.225h-1.25V25.6q0-2.15-1.175-3.9T25.3 19.45v-.7q0-.55-.4-.925t-.9-.375q-.55 0-.925.375t-.375.925v.7q-2.1.5-3.275 2.25-1.175 1.75-1.175 3.9v4.95h-1.2q-.35 0-.575.225-.225.225-.225.525 0 .3.225.55.225.25.575.25Zm-5.9 9.75q-1.2 0-2.05-.85-.85-.85-.85-2.05v-19.3q0-.7.3-1.3.3-.6.85-1l12.85-9.7q.4-.25.85-.425.45-.175.9-.175t.9.175q.45.175.85.425l12.85 9.7q.55.4.85 1 .3.6.3 1.3v19.3q0 1.2-.85 2.05-.85.85-2.05.85Z"/></svg>

<svg xmlns="http://www.w3.org/2000/svg" height="48" width="48"><path d="M24 34.65Q24.65 34.65 25.175 34.2Q25.7 33.75 25.8 33.1H22.2Q22.3 33.75 22.825 34.2Q23.35 34.65 24 34.65ZM17.05 32.1H31Q31.3 32.1 31.525 31.85Q31.75 31.6 31.75 31.3Q31.75 31 31.525 30.775Q31.3 30.55 31 30.55H29.75V25.6Q29.75 23.45 28.575 21.7Q27.4 19.95 25.3 19.45V18.75Q25.3 18.2 24.9 17.825Q24.5 17.45 24 17.45Q23.45 17.45 23.075 17.825Q22.7 18.2 22.7 18.75V19.45Q20.6 19.95 19.425 21.7Q18.25 23.45 18.25 25.6V30.55H17.05Q16.7 30.55 16.475 30.775Q16.25 31 16.25 31.3Q16.25 31.6 16.475 31.85Q16.7 32.1 17.05 32.1ZM11.15 41.85Q9.95 41.85 9.1 41Q8.25 40.15 8.25 38.95V19.65Q8.25 18.95 8.55 18.35Q8.85 17.75 9.4 17.35L22.25 7.65Q22.65 7.4 23.1 7.225Q23.55 7.05 24 7.05Q24.45 7.05 24.9 7.225Q25.35 7.4 25.75 7.65L38.6 17.35Q39.15 17.75 39.45 18.35Q39.75 18.95 39.75 19.65V38.95Q39.75 40.15 38.9 41Q38.05 41.85 36.85 41.85Z"/></svg>
